X:1
T:Title
%%score { ( 1 3 ) | 2 }
L:1/8
Q:1/4=100
M:6/8
K:G
V:1 treble nm="Grand Piano"
V:3 treble 
V:2 treble 
V:1
 BBB BAG | [Fd][Fd][Fd] .[DGB]3 | [CFA]>[CFA][CFA] [CFA][B,EG][DFA] | [DGB]3 .[DFA]3 | BBB BAG | %5
w: I.~H.~Meredith * * * * *|||||
 [Fd][Fd][Fd] .[GB]3 | [FA]>[FA][FA] [FA][FB][FA] | G3 .G3 | d3 B3 | [Ge]3 z3 | B>BB BAG | %11
w: ||||||
 [GB]3 .[FA]3 | z3 B3 |[M:15/16] [Ec]3 [Ge]3/2- [Ge]3 |[M:3/4] d>e dB AG | [FA]3 .[B,G]3 |] %16
w: |||||
V:2
 [G,DG][G,DG][G,DG] [G,DG][G,CD][K:bass][G,B,D] | [D,A,][D,A,][D,A,] .G,3 | D,>D,D, D,E,D, | %3
 G,3 .D,3 | [G,DG][G,DG][G,DG] [G,DG][G,CD][K:bass][G,B,D] | [D,A,][D,A,][D,D] .[G,D]3 | %6
 [D,C]>[D,C][D,C] [D,C][D,D][D,C] | [G,B,]3 .[G,B,]3 | [G,B,G]3 [G,DG]3 | %9
 .[C,C]3[K:treble] [G,B,G]3 | [G,DG]>[G,DG][G,DG] [G,DG][K:bass][G,CD][G,B,D] | [D,D]3 .[D,D]3 | %12
 [G,B,G]3 .[G,DG]3 |[M:15/16][K:bass] [C,C]3 [C,C]3/2- [C,C]3 | %14
[M:3/4][K:treble] [G,B,G]>[G,CG] [G,B,G][G,DG] [G,CD][K:bass][G,B,D] | [D,C]3 .[G,,G,]3 |] %16
V:3
 x6 | x6 | x6 | x6 | x6 | x6 | x6 | x6 | x6 | z2 E, d3 | x6 | x6 | d3 z2 =F |[M:15/16] x15/2 | %14
[M:3/4] x6 | x6 |] %16

